X: 3
T: Blink
T: Tuatha De Danann
M: 8/8
L: 1/16
R: reel
K: Edor
|: B3 EGE GA | B e2 d z2 BA | FAA GFD DF | Adf fed BA |
FAB EGE GA | B e2 d z2 BA | ABd efe df |[1 edB ABE EE :|[2 edB A B2 cd ||
|: eee dcB cd | egf ded BG | d3 AAD AB | dfe dBA GB |
dee dcA cd | egf dee eB | ddd d2 e fe |[1 dBA FBE EE :|[2 dBA F B2- B2 |]
